X: 38795
T: Suantree
R: waltz
M: 3/4
K: Gmixolydian
|:(dc)|(B2!tenuto!B2)(dB)|(c2!tenuto!c2)(dc)|(B2!tenuto!B2)(G>B)|(A2G2)(dc)|(B2!tenuto!B2)G2|A2(d2{ed}cA)|
(A2G2)G2|G4:|:(de)|(f2!tenuto!f2)(ed)|(e2!tenuto!e2)(dB)|(d2g2)B2|(A2G2)(de)|
(f2!tenuto!f2)(ed)|(e2!tenuto!e2)(dB)|(d2g2)(ag)|!fermata!g4(dc)|(B2!tenuto!B2)(dB)|(c2!tenuto!c2)(dc)|
(B2!tenuto!B2)(G>B)|(A2G2)(dc)|(B2!tenuto!B2)G2|A2(d2{ed}cA)|(A2G2)G2|G4:|

